<jittershader name='tml.gl.blur.glsl'>
<param name='tex0' type='int' default='0' />
<param name='blur' type='float' default='0.' />
<language name='glsl' version='1.0'>
<bind param='tex0' program='fp' />
<bind param='blur' program='fp' />
<program name='vp' type='vertex' source='sh.passthru.xform.vp.glsl' />
<program name='fp' type='fragment' source='tml.gl.blur.glsl' />
</language> </jittershader>
