<jittershader name='tml.gl.opticalFlow.glsl'>
<param name='tex0' type='int' default='0' />
<param name='tex1' type='int' default='1' />
<param name='alpha' type='float' default='0.' />
<language name='glsl' version='1.0'>
<bind param='tex0' program='fp' />
<bind param='tex1' program='fp' />
<bind param='alpha' program='fp' />
<program name='vp' type='vertex' source='sh.passthru.xform.vp.glsl' />
<program name='fp' type='fragment' source='tml.gl.opticalFlow.glsl' />
</language> </jittershader>
