<jittershader name='tml.gl.abs.glsl'>
<param name='tex0' type='int' default='0' />
<language name='glsl' version='1.0'>
<bind param='tex0' program='fp' />
<program name='vp' type='vertex' source='sh.passthru.xform.vp.glsl' />
<program name='fp' type='fragment' source='tml.gl.abs.glsl' />
</language> </jittershader>
